src/img/popup/decor-svg.svg

<svg width="175" height="174" viewBox="0 0 175 174" fill="none" xmlns="http://www.w3.org/2000/svg">
<g opacity="0.55">
<g filter="url(#filter0_b_641_368)">
<path d="M69.7784 24.4863C70.823 23.5469 71.8938 22.6661 73.0213 21.8316C78.0953 18.0761 83.8926 15.421 90.0365 14.0387C96.1804 12.6564 102.533 12.5778 108.683 13.8081C109.358 13.9424 109.957 14.3216 110.365 14.8729C110.773 15.4242 110.961 16.1086 110.893 16.7949C110.293 23.0514 108.377 29.1241 105.271 34.6151C102.165 40.1061 97.9394 44.8914 92.8708 48.6574C87.8022 52.4234 82.005 55.0851 75.8593 56.468C69.7135 57.851 63.3578 57.924 57.2087 56.6823C56.5344 56.5481 55.936 56.1695 55.5281 55.619C55.1203 55.0686 54.9317 54.3851 54.9986 53.6995C56.0984 42.4912 61.3743 32.0631 69.7784 24.4863Z" fill="url(#paint0_linear_641_368)" fill-opacity="0.6"/>
</g>
<g filter="url(#filter1_b_641_368)">
<path d="M69.169 62.401C79.1525 73.485 92.8838 80.5017 107.78 82.1314C122.677 83.7612 137.712 79.8917 150.058 71.2508C150.632 70.8584 151.041 70.2671 151.204 69.5932C151.367 68.9192 151.272 68.2113 150.939 67.6086C146.62 59.6027 140.555 52.6809 133.186 47.3496C125.817 42.0184 117.331 38.4126 108.35 36.7961C99.3678 35.1796 90.1172 35.5933 81.2747 38.0069C72.4322 40.4205 64.2216 44.7729 57.2435 50.7458L55.9227 51.8738C60.9899 54.4826 65.4893 58.0583 69.169 62.401Z" fill="url(#paint1_linear_641_368)" fill-opacity="0.6"/>
</g>
<g filter="url(#filter2_b_641_368)">
<path d="M56.1424 52.1102C56.6566 51.6478 57.3215 51.3893 58.0099 51.3843C67.8453 51.3057 77.5653 53.3015 86.5344 57.2412C95.5035 61.181 103.52 66.9759 110.059 74.2472C116.598 81.5185 121.514 90.1024 124.483 99.4377C127.453 108.773 128.41 118.65 127.292 128.421C127.214 129.105 126.887 129.739 126.373 130.202C125.859 130.664 125.194 130.923 124.505 130.928C114.67 131.006 104.95 129.011 95.9808 125.071C87.0117 121.131 78.9954 115.336 72.4561 108.065C65.9168 100.794 61.0017 92.2097 58.0321 82.8744C55.0625 73.5391 54.1053 63.6625 55.2231 53.8906C55.3009 53.2066 55.6282 52.5726 56.1424 52.1102Z" fill="url(#paint2_linear_641_368)" fill-opacity="0.6"/>
</g>
<g filter="url(#filter3_b_641_368)">
<path d="M64.9919 66.1576C74.9584 77.2569 80.4843 91.6529 80.5304 106.638C80.5764 121.623 75.1393 136.165 65.2417 147.529C64.7908 148.058 64.1597 148.402 63.4723 148.493C62.7849 148.584 62.0909 148.415 61.5268 148.02C54.0222 142.879 47.7803 136.116 43.2579 128.225C38.7354 120.334 36.0468 111.515 35.3888 102.412C34.7308 93.3098 36.12 84.1548 39.4548 75.617C42.7895 67.0791 47.9855 59.3746 54.6625 53.067L55.9238 51.8728C57.9823 57.1874 61.0625 62.0395 64.9919 66.1576Z" fill="url(#paint3_linear_641_368)" fill-opacity="0.6"/>
</g>
<g filter="url(#filter4_b_641_368)">
<path d="M57.8392 51.1449C58.5281 51.1508 59.1878 51.4106 59.6921 51.8744C60.1963 52.3381 60.5095 52.9732 60.5717 53.658C61.1565 59.9038 60.412 66.2162 58.3872 72.1813C56.3624 78.1465 53.1028 83.6298 48.8221 88.272C44.5414 92.9141 39.3363 96.6103 33.5478 99.1183C27.7592 101.626 21.518 102.889 15.2331 102.825C14.5435 102.82 13.8828 102.561 13.3777 102.097C12.8726 101.633 12.5589 100.997 12.4967 100.312C11.9233 94.0667 12.6729 87.7575 14.697 81.7941C16.721 75.8308 19.974 70.3466 24.2448 65.6981C25.2001 64.6594 26.1912 63.6858 27.2274 62.7539C35.6501 55.1978 46.5775 51.0538 57.8392 51.1449Z" fill="url(#paint4_linear_641_368)" fill-opacity="0.6"/>
</g>
</g>
<defs>
<filter id="filter0_b_641_368" x="50.3168" y="8.27192" width="65.2582" height="53.9591" filterUnits="userSpaceOnUse" color-interpolation-filters="sRGB">
<feFlood flood-opacity="0" result="BackgroundImageFix"/>
<feGaussianBlur in="BackgroundImageFix" stdDeviation="2.33425"/>
<feComposite in2="SourceAlpha" operator="in" result="effect1_backgroundBlur_641_368"/>
<feBlend mode="normal" in="SourceGraphic" in2="effect1_backgroundBlur_641_368" result="shape"/>
</filter>
<filter id="filter1_b_641_368" x="51.2542" y="31.1601" width="104.696" height="56.0045" filterUnits="userSpaceOnUse" color-interpolation-filters="sRGB">
<feFlood flood-opacity="0" result="BackgroundImageFix"/>
<feGaussianBlur in="BackgroundImageFix" stdDeviation="2.33425"/>
<feComposite in2="SourceAlpha" operator="in" result="effect1_backgroundBlur_641_368"/>
<feBlend mode="normal" in="SourceGraphic" in2="effect1_backgroundBlur_641_368" result="shape"/>
</filter>
<filter id="filter2_b_641_368" x="50.1018" y="46.7133" width="82.3118" height="88.8854" filterUnits="userSpaceOnUse" color-interpolation-filters="sRGB">
<feFlood flood-opacity="0" result="BackgroundImageFix"/>
<feGaussianBlur in="BackgroundImageFix" stdDeviation="2.33425"/>
<feComposite in2="SourceAlpha" operator="in" result="effect1_backgroundBlur_641_368"/>
<feBlend mode="normal" in="SourceGraphic" in2="effect1_backgroundBlur_641_368" result="shape"/>
</filter>
<filter id="filter3_b_641_368" x="30.5612" y="47.2045" width="54.6379" height="105.981" filterUnits="userSpaceOnUse" color-interpolation-filters="sRGB">
<feFlood flood-opacity="0" result="BackgroundImageFix"/>
<feGaussianBlur in="BackgroundImageFix" stdDeviation="2.33425"/>
<feComposite in2="SourceAlpha" operator="in" result="effect1_backgroundBlur_641_368"/>
<feBlend mode="normal" in="SourceGraphic" in2="effect1_backgroundBlur_641_368" result="shape"/>
</filter>
<filter id="filter4_b_641_368" x="7.6413" y="46.475" width="57.7923" height="61.0211" filterUnits="userSpaceOnUse" color-interpolation-filters="sRGB">
<feFlood flood-opacity="0" result="BackgroundImageFix"/>
<feGaussianBlur in="BackgroundImageFix" stdDeviation="2.33425"/>
<feComposite in2="SourceAlpha" operator="in" result="effect1_backgroundBlur_641_368"/>
<feBlend mode="normal" in="SourceGraphic" in2="effect1_backgroundBlur_641_368" result="shape"/>
</filter>
<linearGradient id="paint0_linear_641_368" x1="125.817" y1="4.09052" x2="46.3035" y2="42.5534" gradientUnits="userSpaceOnUse">
<stop offset="0.203113" stop-color="#9FE8D6"/>
<stop offset="0.687508" stop-color="#96E0F7" stop-opacity="0.6"/>
<stop offset="1" stop-color="#94CBFF" stop-opacity="0"/>
</linearGradient>
<linearGradient id="paint1_linear_641_368" x1="148.859" y1="37.3625" x2="81.2308" y2="85.5041" gradientUnits="userSpaceOnUse">
<stop offset="0.203113" stop-color="#9FE8D6"/>
<stop offset="0.687508" stop-color="#96E0F7" stop-opacity="0.6"/>
<stop offset="1" stop-color="#94CBFF" stop-opacity="0"/>
</linearGradient>
<linearGradient id="paint2_linear_641_368" x1="131.882" y1="77.7428" x2="78.1708" y2="119.745" gradientUnits="userSpaceOnUse">
<stop offset="0.203113" stop-color="#9FE8D6"/>
<stop offset="0.687508" stop-color="#96E0F7" stop-opacity="0.6"/>
<stop offset="1" stop-color="#94CBFF" stop-opacity="0"/>
</linearGradient>
<linearGradient id="paint3_linear_641_368" x1="102.89" y1="78.7043" x2="35.2614" y2="126.846" gradientUnits="userSpaceOnUse">
<stop offset="0.203113" stop-color="#9FE8D6"/>
<stop offset="0.687508" stop-color="#96E0F7" stop-opacity="0.6"/>
<stop offset="1" stop-color="#94CBFF" stop-opacity="0"/>
</linearGradient>
<linearGradient id="paint4_linear_641_368" x1="79.4055" y1="45.8303" x2="-0.108236" y2="84.2931" gradientUnits="userSpaceOnUse">
<stop offset="0.203113" stop-color="#9FE8D6"/>
<stop offset="0.687508" stop-color="#96E0F7" stop-opacity="0.6"/>
<stop offset="1" stop-color="#94CBFF" stop-opacity="0"/>
</linearGradient>
</defs>
</svg>

<svg width="175" height="174" fill="none" xmlns="http://www.w3.org/2000/svg"><g opacity=".55"><g filter="url(#a)"><path d="M69.778 24.486a43.82 43.82 0 0 1 3.243-2.654 45.337 45.337 0 0 1 17.016-7.793 44.86 44.86 0 0 1 18.646-.23 2.76 2.76 0 0 1 2.21 2.986 44.911 44.911 0 0 1-5.622 17.82 45.261 45.261 0 0 1-12.4 14.042 45.153 45.153 0 0 1-17.012 7.811 44.676 44.676 0 0 1-18.65.214 2.76 2.76 0 0 1-2.21-2.983c1.1-11.208 6.375-21.636 14.78-29.213Z" fill="url(#b)" fill-opacity=".6"/></g><g filter="url(#c)"><path d="M69.169 62.401c9.984 11.084 23.715 18.1 38.611 19.73 14.897 1.63 29.932-2.24 42.278-10.88a2.81 2.81 0 0 0 1.146-1.658 2.76 2.76 0 0 0-.265-1.984 60.383 60.383 0 0 0-17.753-20.26 60.704 60.704 0 0 0-24.836-10.553 61.477 61.477 0 0 0-27.075 1.21 62.126 62.126 0 0 0-24.032 12.74l-1.32 1.128A43.389 43.389 0 0 1 69.169 62.4Z" fill="url(#d)" fill-opacity=".6"/></g><g filter="url(#e)"><path d="M56.142 52.11a2.826 2.826 0 0 1 1.868-.726 69.535 69.535 0 0 1 28.524 5.857 68.886 68.886 0 0 1 23.525 17.006 68.885 68.885 0 0 1 14.424 25.19 69.524 69.524 0 0 1 2.809 28.984 2.83 2.83 0 0 1-2.787 2.507 69.54 69.54 0 0 1-28.524-5.857 68.896 68.896 0 0 1-23.525-17.006 68.887 68.887 0 0 1-14.424-25.19 69.534 69.534 0 0 1-2.809-28.984 2.826 2.826 0 0 1 .92-1.78Z" fill="url(#f)" fill-opacity=".6"/></g><g filter="url(#g)"><path d="M64.992 66.158c9.966 11.099 15.492 25.495 15.538 40.48.046 14.985-5.39 29.527-15.288 40.891a2.812 2.812 0 0 1-1.77.964 2.76 2.76 0 0 1-1.945-.473 60.383 60.383 0 0 1-18.27-19.795 60.697 60.697 0 0 1-7.868-25.813 61.475 61.475 0 0 1 4.066-26.795 62.124 62.124 0 0 1 15.208-22.55l1.26-1.194a43.387 43.387 0 0 0 9.069 14.285Z" fill="url(#h)" fill-opacity=".6"/></g><g filter="url(#i)"><path d="M57.84 51.145a2.76 2.76 0 0 1 2.733 2.513 44.676 44.676 0 0 1-2.186 18.523 45.153 45.153 0 0 1-9.565 16.091 45.26 45.26 0 0 1-15.274 10.846 44.93 44.93 0 0 1-18.315 3.707 2.761 2.761 0 0 1-2.736-2.513 44.858 44.858 0 0 1 2.2-18.518 45.336 45.336 0 0 1 9.548-16.096 44.098 44.098 0 0 1 2.982-2.944c8.423-7.556 19.35-11.7 30.612-11.61Z" fill="url(#j)" fill-opacity=".6"/></g></g><defs><linearGradient id="b" x1="125.817" y1="4.091" x2="46.303" y2="42.553" gradientUnits="userSpaceOnUse"><stop offset=".203" stop-color="#9FE8D6"/><stop offset=".688" stop-color="#96E0F7" stop-opacity=".6"/><stop offset="1" stop-color="#94CBFF" stop-opacity="0"/></linearGradient><linearGradient id="d" x1="148.859" y1="37.362" x2="81.231" y2="85.504" gradientUnits="userSpaceOnUse"><stop offset=".203" stop-color="#9FE8D6"/><stop offset=".688" stop-color="#96E0F7" stop-opacity=".6"/><stop offset="1" stop-color="#94CBFF" stop-opacity="0"/></linearGradient><linearGradient id="f" x1="131.882" y1="77.743" x2="78.171" y2="119.745" gradientUnits="userSpaceOnUse"><stop offset=".203" stop-color="#9FE8D6"/><stop offset=".688" stop-color="#96E0F7" stop-opacity=".6"/><stop offset="1" stop-color="#94CBFF" stop-opacity="0"/></linearGradient><linearGradient id="h" x1="102.89" y1="78.704" x2="35.261" y2="126.846" gradientUnits="userSpaceOnUse"><stop offset=".203" stop-color="#9FE8D6"/><stop offset=".688" stop-color="#96E0F7" stop-opacity=".6"/><stop offset="1" stop-color="#94CBFF" stop-opacity="0"/></linearGradient><linearGradient id="j" x1="79.406" y1="45.83" x2="-.108" y2="84.293" gradientUnits="userSpaceOnUse"><stop offset=".203" stop-color="#9FE8D6"/><stop offset=".688" stop-color="#96E0F7" stop-opacity=".6"/><stop offset="1" stop-color="#94CBFF" stop-opacity="0"/></linearGradient><filter id="a" x="50.317" y="8.272" width="65.258" height="53.959" filterUnits="userSpaceOnUse" color-interpolation-filters="sRGB"><feFlood flood-opacity="0" result="BackgroundImageFix"/><feGaussianBlur in="BackgroundImageFix" stdDeviation="2.334"/><feComposite in2="SourceAlpha" operator="in" result="effect1_backgroundBlur_641_368"/><feBlend in="SourceGraphic" in2="effect1_backgroundBlur_641_368" result="shape"/></filter><filter id="c" x="51.254" y="31.16" width="104.696" height="56.005" filterUnits="userSpaceOnUse" color-interpolation-filters="sRGB"><feFlood flood-opacity="0" result="BackgroundImageFix"/><feGaussianBlur in="BackgroundImageFix" stdDeviation="2.334"/><feComposite in2="SourceAlpha" operator="in" result="effect1_backgroundBlur_641_368"/><feBlend in="SourceGraphic" in2="effect1_backgroundBlur_641_368" result="shape"/></filter><filter id="e" x="50.102" y="46.713" width="82.312" height="88.885" filterUnits="userSpaceOnUse" color-interpolation-filters="sRGB"><feFlood flood-opacity="0" result="BackgroundImageFix"/><feGaussianBlur in="BackgroundImageFix" stdDeviation="2.334"/><feComposite in2="SourceAlpha" operator="in" result="effect1_backgroundBlur_641_368"/><feBlend in="SourceGraphic" in2="effect1_backgroundBlur_641_368" result="shape"/></filter><filter id="g" x="30.561" y="47.205" width="54.638" height="105.981" filterUnits="userSpaceOnUse" color-interpolation-filters="sRGB"><feFlood flood-opacity="0" result="BackgroundImageFix"/><feGaussianBlur in="BackgroundImageFix" stdDeviation="2.334"/><feComposite in2="SourceAlpha" operator="in" result="effect1_backgroundBlur_641_368"/><feBlend in="SourceGraphic" in2="effect1_backgroundBlur_641_368" result="shape"/></filter><filter id="i" x="7.641" y="46.475" width="57.792" height="61.021" filterUnits="userSpaceOnUse" color-interpolation-filters="sRGB"><feFlood flood-opacity="0" result="BackgroundImageFix"/><feGaussianBlur in="BackgroundImageFix" stdDeviation="2.334"/><feComposite in2="SourceAlpha" operator="in" result="effect1_backgroundBlur_641_368"/><feBlend in="SourceGraphic" in2="effect1_backgroundBlur_641_368" result="shape"/></filter></defs></svg>
